X:1
T:Title
%%score { ( 1 3 ) | ( 2 4 ) }
L:1/8
Q:1/4=81
M:6/8
K:Bb
V:1 treble nm="Grand Piano"
V:3 treble 
V:2 bass 
V:4 bass 
V:1
 [DF][_D=E][=DF] [DB][DA][DG] | [DF][EG][DF] [B,D]2 [DF]/[DF]/ | FGF E2 F | D3- D2 [DF] | %4
w: Haldor~Lillenas * * * * *||||
 [DF][_D=E][=DF] [DB][DA][DG] | [DF][EG][DF] [F,B,D]2 [DF]/[_DFG]/ | %6
w: ||
 [CFA][=B,F_A][CF=A] [=EB]2 [EG] | c6 |[M:1/8] [DB]/[Ec]/ |[M:3/4] [Fd][Fd] [Fd] [Ge]2 [Fd] | c6 | %11
w: |||||
 cc c d2 c | B6 | [B,EG][B,EG] [B,EG][GB] [FA][EG] |[M:7/8] [DF][_D=E][=DF] [Fd]3 [DF]/[DF]/ | %15
w: ||||
[M:3/4] z2 z .d3 | B6 |] %17
w: ||
V:2
 [B,,B,][B,,B,][B,,B,] [B,,F,][B,,F,][B,,B,] | [B,,B,][B,,B,][B,,B,] [B,,F,]2 [B,,B,]/[B,,B,]/ | %2
 [F,A,E][F,A,E][F,A,E] [F,A,C]2 [F,A,C] | [B,,F,B,]3- [B,,F,B,]2 [B,,B,] | %4
 [B,,B,][B,,B,][B,,B,] [B,,F,][B,,F,][B,,B,] | [B,,B,][B,,B,]B,, B,,2 B,,/B,,/ | %6
 C,C,C, [C,G,]2 [C,B,] | [F,A,F]2 [G,B,] [F,A,]3 |[M:1/8] [B,,B,]/[B,,B,]/ | %9
[M:3/4] [B,,B,][B,,B,] [B,,B,] [B,,B,]2 [B,,B,] | [F,A,F]2 [G,B,] [A,C]2 [F,A,E]/[F,A,E]/ | %11
 [F,A,E][F,A,E] [F,A,E] [F,B,F]2 [F,A,E] | z2 G, F,2 B,, | E,E, E, [E,E]2 [E,B,] | %14
[M:7/8] [B,,B,][B,,B,][B,,B,] [B,,B,]3 [B,,B,]/[B,,B,]/ |[M:3/4] z2 z B, z2 | z2 G, .F,3 |] %17
V:3
 x6 | x6 | x6 | x6 | x6 | x6 | x6 | z2 =E _E3 |[M:1/8] x |[M:3/4] x6 | z2 =E _E2 F/F/ | x6 | %12
 [B,D]2 E D2 [B,DF] | x6 |[M:7/8] x7 |[M:3/4] [EG][FA] .[FB]2 G,c | [B,D]2 E .D3 |] %17
V:4
 x6 | x6 | x6 | x6 | x6 | x6 | x6 | x6 |[M:1/8] x |[M:3/4] x6 | x6 | x6 | B,,6 | x6 |[M:7/8] x7 | %15
[M:3/4] [E,B,][E,C] [D,B,] [F,F]2 [F,A,E] | B,,6 |] %17

